documentation/public/assets/images/pagination.svg

<svg width="308" height="48" viewBox="0 0 308 48" fill="none" xmlns="http://www.w3.org/2000/svg">
<g opacity="0.3">
<path d="M27.9996 32.9996C27.7396 32.9996 27.4896 32.8996 27.2896 32.7096L19.2896 24.7096C18.8996 24.3196 18.8996 23.6896 19.2896 23.2996L27.2896 15.2896C27.6796 14.8996 28.3096 14.8996 28.6996 15.2896C29.0896 15.6796 29.0896 16.3096 28.6996 16.6996L21.4096 23.9896L28.6996 31.2796C29.0896 31.6696 29.0896 32.2996 28.6996 32.6896C28.4996 32.8896 28.2496 32.9796 27.9896 32.9796L27.9996 32.9996Z" fill="#757575"/>
<rect width="48" height="48" rx="4" stroke="#545454"/>
</g>
<path d="M78.267 18.3636V30H76.1591V20.4148H76.0909L73.3693 22.1534V20.2216L76.2614 18.3636H78.267Z" fill="#0F67F5"/>
<path d="M56 0.5H96C97.933 0.5 99.5 2.067 99.5 4V44C99.5 45.933 97.933 47.5 96 47.5H56C54.067 47.5 52.5 45.933 52.5 44V4C52.5 2.067 54.067 0.5 56 0.5Z" stroke="#0F67F5"/>
<path d="M123.705 30V28.9773L127.545 24.7727C127.996 24.2803 128.367 23.8523 128.659 23.4886C128.951 23.1212 129.167 22.7765 129.307 22.4545C129.451 22.1288 129.523 21.7879 129.523 21.4318C129.523 21.0227 129.424 20.6686 129.227 20.3693C129.034 20.0701 128.769 19.839 128.432 19.6761C128.095 19.5133 127.716 19.4318 127.295 19.4318C126.848 19.4318 126.458 19.5246 126.125 19.7102C125.795 19.892 125.54 20.1477 125.358 20.4773C125.18 20.8068 125.091 21.1932 125.091 21.6364H123.75C123.75 20.9545 123.907 20.3561 124.222 19.8409C124.536 19.3258 124.964 18.9242 125.506 18.6364C126.051 18.3485 126.663 18.2045 127.341 18.2045C128.023 18.2045 128.627 18.3485 129.153 18.6364C129.68 18.9242 130.093 19.3125 130.392 19.8011C130.691 20.2898 130.841 20.8333 130.841 21.4318C130.841 21.8598 130.763 22.2784 130.608 22.6875C130.456 23.0928 130.191 23.5455 129.812 24.0455C129.438 24.5417 128.917 25.1477 128.25 25.8636L125.636 28.6591V28.75H131.045V30H123.705Z" fill="#545454"/>
<path d="M104 4C104 1.79086 105.791 0 108 0H148C150.209 0 152 1.79086 152 4V44C152 46.2091 150.209 48 148 48H108C105.791 48 104 46.2091 104 44V4Z" stroke="#757575"/>
<path d="M179.636 30.1591C178.886 30.1591 178.218 30.0303 177.631 29.7727C177.047 29.5152 176.583 29.1572 176.239 28.6989C175.898 28.2367 175.712 27.7008 175.682 27.0909H177.114C177.144 27.4659 177.273 27.7898 177.5 28.0625C177.727 28.3314 178.025 28.5398 178.392 28.6875C178.759 28.8352 179.167 28.9091 179.614 28.9091C180.114 28.9091 180.557 28.822 180.943 28.6477C181.33 28.4735 181.633 28.2311 181.852 27.9205C182.072 27.6098 182.182 27.25 182.182 26.8409C182.182 26.4129 182.076 26.036 181.864 25.7102C181.652 25.3807 181.341 25.1231 180.932 24.9375C180.523 24.7519 180.023 24.6591 179.432 24.6591H178.5V23.4091H179.432C179.894 23.4091 180.299 23.3258 180.648 23.1591C181 22.9924 181.275 22.7576 181.472 22.4545C181.672 22.1515 181.773 21.7955 181.773 21.3864C181.773 20.9924 181.686 20.6496 181.511 20.358C181.337 20.0663 181.091 19.839 180.773 19.6761C180.458 19.5133 180.087 19.4318 179.659 19.4318C179.258 19.4318 178.879 19.5057 178.523 19.6534C178.17 19.7973 177.883 20.0076 177.659 20.2841C177.436 20.5568 177.314 20.8864 177.295 21.2727H175.932C175.955 20.6629 176.138 20.1288 176.483 19.6705C176.828 19.2083 177.278 18.8485 177.835 18.5909C178.396 18.3333 179.011 18.2045 179.682 18.2045C180.402 18.2045 181.019 18.3504 181.534 18.642C182.049 18.9299 182.445 19.3106 182.722 19.7841C182.998 20.2576 183.136 20.7689 183.136 21.3182C183.136 21.9735 182.964 22.5322 182.619 22.9943C182.278 23.4564 181.814 23.7765 181.227 23.9545V24.0455C181.962 24.1667 182.536 24.4792 182.949 24.983C183.362 25.483 183.568 26.1023 183.568 26.8409C183.568 27.4735 183.396 28.0417 183.051 28.5455C182.71 29.0455 182.244 29.4394 181.653 29.7273C181.063 30.0152 180.39 30.1591 179.636 30.1591Z" fill="#545454"/>
<path d="M156 4C156 1.79086 157.791 0 160 0H200C202.209 0 204 1.79086 204 4V44C204 46.2091 202.209 48 200 48H160C157.791 48 156 46.2091 156 44V4Z" stroke="#757575"/>
<path d="M227.432 27.6136V26.4545L232.545 18.3636H233.386V20.1591H232.818L228.955 26.2727V26.3636H235.841V27.6136H227.432ZM232.909 30V27.2614V26.7216V18.3636H234.25V30H232.909Z" fill="#545454"/>
<path d="M208 4C208 1.79086 209.791 0 212 0H252C254.209 0 256 1.79086 256 4V44C256 46.2091 254.209 48 252 48H212C209.791 48 208 46.2091 208 44V4Z" stroke="#757575"/>
<path d="M280 33.0001C279.74 33.0001 279.49 32.9001 279.29 32.7101C278.9 32.3201 278.9 31.6901 279.29 31.3001L286.58 24.0101L279.29 16.7201C278.9 16.3301 278.9 15.7001 279.29 15.3101C279.68 14.9201 280.31 14.9201 280.7 15.3101L288.7 23.3101C289.09 23.7001 289.09 24.3301 288.7 24.7201L280.7 32.7201C280.5 32.9201 280.25 33.0101 279.99 33.0101L280 33.0001Z" fill="#757575"/>
<rect x="260" width="48" height="48" rx="4" stroke="#757575"/>
</svg>

<svg width="308" height="48" fill="none" xmlns="http://www.w3.org/2000/svg"><g opacity=".3"><path d="M28 33c-.26 0-.51-.1-.71-.29l-8-8a1 1 0 0 1 0-1.41l8-8.01a1 1 0 1 1 1.41 1.41l-7.29 7.29 7.29 7.29a1 1 0 0 1-.71 1.7L28 33Z" fill="#757575"/><rect width="48" height="48" rx="4" stroke="#545454"/></g><path d="M78.27 18.36V30h-2.11v-9.59h-.07l-2.72 1.74v-1.93l2.9-1.86h2Z" fill="#0F67F5"/><path d="M56 .5h40A3.5 3.5 0 0 1 99.5 4v40a3.5 3.5 0 0 1-3.5 3.5H56a3.5 3.5 0 0 1-3.5-3.5V4A3.5 3.5 0 0 1 56 .5Z" stroke="#0F67F5"/><path d="M123.7 30v-1.02l3.84-4.2c.46-.5.83-.93 1.12-1.3.3-.36.5-.7.65-1.03.14-.32.21-.66.21-1.02a1.89 1.89 0 0 0-1.09-1.75 2.58 2.58 0 0 0-1.14-.25c-.44 0-.83.1-1.17.28-.33.18-.58.44-.76.77a2.4 2.4 0 0 0-.27 1.16h-1.34a3.27 3.27 0 0 1 1.76-3 3.87 3.87 0 0 1 1.83-.44c.68 0 1.29.15 1.81.44a3.15 3.15 0 0 1 1.69 2.79c0 .43-.08.85-.23 1.26-.15.4-.42.86-.8 1.36-.37.5-.9 1.1-1.56 1.81l-2.61 2.8v.09h5.4V30h-7.33Z" fill="#545454"/><path d="M104 4a4 4 0 0 1 4-4h40a4 4 0 0 1 4 4v40a4 4 0 0 1-4 4h-40a4 4 0 0 1-4-4V4Z" stroke="#757575"/><path d="M179.64 30.16c-.75 0-1.42-.13-2-.39a3.43 3.43 0 0 1-1.4-1.07c-.34-.46-.53-1-.56-1.6h1.43c.03.37.16.69.39.96s.53.48.9.63c.36.15.77.22 1.21.22.5 0 .95-.09 1.33-.26.39-.18.7-.42.91-.73.22-.31.33-.67.33-1.08 0-.43-.1-.8-.32-1.13a2.1 2.1 0 0 0-.93-.77 3.5 3.5 0 0 0-1.5-.28h-.93V23.4h.93c.46 0 .87-.08 1.22-.25a1.9 1.9 0 0 0 1.13-1.77 2 2 0 0 0-.27-1.03c-.17-.3-.42-.52-.74-.68a2.4 2.4 0 0 0-1.11-.25c-.4 0-.78.08-1.14.22-.35.15-.64.36-.86.63-.22.28-.35.6-.37 1h-1.36c.03-.62.2-1.15.55-1.61.35-.46.8-.82 1.36-1.08a4.37 4.37 0 0 1 3.7.05 3 3 0 0 1 1.6 2.68 2.62 2.62 0 0 1-1.9 2.64v.09c.72.12 1.3.43 1.7.93.42.5.63 1.12.63 1.86 0 .63-.17 1.2-.52 1.7-.34.5-.8.9-1.4 1.19a4.5 4.5 0 0 1-2.01.43Z" fill="#545454"/><path d="M156 4a4 4 0 0 1 4-4h40a4 4 0 0 1 4 4v40a4 4 0 0 1-4 4h-40a4 4 0 0 1-4-4V4Z" stroke="#757575"/><path d="M227.43 27.61v-1.16l5.11-8.09h.85v1.8h-.57l-3.86 6.11v.1h6.88v1.24h-8.4Zm5.48 2.39V18.36h1.34V30h-1.34Z" fill="#545454"/><path d="M208 4a4 4 0 0 1 4-4h40a4 4 0 0 1 4 4v40a4 4 0 0 1-4 4h-40a4 4 0 0 1-4-4V4Z" stroke="#757575"/><path d="M280 33a1 1 0 0 1-.71-1.7l7.29-7.29-7.29-7.29a1 1 0 1 1 1.41-1.41l8 8a1 1 0 0 1 0 1.41l-8 8c-.2.2-.45.29-.71.29L280 33Z" fill="#757575"/><rect x="260" width="48" height="48" rx="4" stroke="#757575"/></svg>
